svg/u1f522.svg

<svg viewBox="0 0 128 128" xmlns="http://www.w3.org/2000/svg">
  <g>
    <path d="M116,4H12c-4.4,0-8,3.6-8,8v104c0,4.4,3.6,8,8,8h104c4.4,0,8-3.6,8-8V12C124,7.6,120.4,4,116,4z" fill="#427687"/>
    <path d="M109.7,4H11.5C7.4,4,4,7.4,4,11.5v97.9c0,4.2,3.4,7.5,7.5,7.5h98.1c4.2,0,7.5-3.4,7.5-7.5V11.5 C117.3,7.4,113.8,4,109.7,4z" fill="#8CAFBF"/>
  </g>
  <path d="M39.7,12.9c0-2.3-1.6-3-10.8-2.7c-7.7,0.3-11.5,1.2-13.8,4 s-2.9,8.5-3,15.3c0,4.8,0,9.3,2.5,9.3c3.4,0,3.4-7.9,6.2-12.3C26.2,17.8,39.7,15.9,39.7,12.9z" opacity="0.5" fill="#B4E1ED" enable-background="new "/>
  <path d="M38.02,30.78l-5.4,3.93l-3.46-5.29l10.53-7.59h5.19v35.83h-6.86V30.78z" fill="#FAFAFA"/>
  <path d="M74.02,51.42c7.26-7.19,11.61-11.58,13.04-13.15c1.26-1.36,2.12-2.5,2.59-3.4 c0.47-0.91,0.71-1.94,0.71-3.09c0-1.22-0.45-2.25-1.36-3.09c-0.91-0.84-2.11-1.26-3.61-1.26c-1.47,0-2.65,0.42-3.56,1.26 c-0.91,0.84-1.55,1.89-1.94,3.14l-6.18-2.57c0.38-1.36,1.09-2.68,2.12-3.95c1.03-1.27,2.37-2.31,4.01-3.12 c1.64-0.8,3.53-1.2,5.66-1.2c2.37,0,4.45,0.46,6.23,1.39c1.78,0.93,3.16,2.18,4.14,3.77c0.98,1.59,1.47,3.36,1.47,5.32 c0,3.88-1.89,7.67-5.66,11.37c-1.54,1.5-4.38,4.33-8.54,8.49l0.16,0.31H97.8v6.02H74.02V51.42z" fill="#FAFAFA"/>
  <path d="M33.65,103.91c-2.32-1.61-3.92-3.95-4.79-7.02l6.5-2.57c0.42,1.71,1.17,3.03,2.25,3.96 c1.08,0.93,2.44,1.39,4.09,1.39c1.5,0,2.8-0.45,3.9-1.36c1.1-0.91,1.65-2.06,1.65-3.46c0-1.5-0.58-2.7-1.75-3.59 c-1.17-0.89-2.75-1.34-4.74-1.34h-3.09v-6.23h2.83c1.54,0,2.84-0.38,3.9-1.15c1.06-0.77,1.6-1.89,1.6-3.35 c0-1.19-0.44-2.16-1.31-2.93c-0.87-0.77-1.99-1.15-3.35-1.15c-1.43,0-2.58,0.38-3.46,1.15c-0.87,0.77-1.48,1.73-1.83,2.88 l-6.23-2.57c0.73-2.1,2.09-3.91,4.06-5.45c1.97-1.54,4.48-2.3,7.52-2.3c2.23,0,4.23,0.42,6,1.26c1.76,0.84,3.13,1.98,4.11,3.43 c0.98,1.45,1.47,3.08,1.47,4.9c0,1.92-0.45,3.56-1.34,4.92c-0.89,1.36-1.96,2.36-3.22,2.99v0.42c1.75,0.7,3.16,1.8,4.24,3.3 c1.08,1.5,1.62,3.32,1.62,5.45c0,2.06-0.52,3.91-1.57,5.55c-1.05,1.64-2.52,2.93-4.43,3.88c-1.9,0.94-4.09,1.41-6.57,1.41 C38.65,106.32,35.97,105.51,33.65,103.91z" fill="#FAFAFA"/>
  <path d="M90.21,98.88h-16.5v-5.55l15.92-23.67h7.44v22.84h4.45v6.39h-4.45v6.6h-6.86V98.88z M90.21,92.49 V79.87h-0.42L81.3,92.49H90.21z" fill="#FAFAFA"/>
</svg>

<svg viewBox="0 0 128 128" xmlns="http://www.w3.org/2000/svg">
  <defs/>
  <path d="M116,4 L12,4 C7.6,4 4,7.6 4,12 L4,116 C4,120.4 7.6,124 12,124 L116,124 C120.4,124 124,120.4 124,116 L124,12 C124,7.6 120.4,4 116,4 Z" fill="#427687"/>
  <path d="M109.7,4 L11.5,4 C7.4,4 4,7.4 4,11.5 L4,109.4 C4,113.6 7.4,116.9 11.5,116.9 L109.6,116.9 C113.8,116.9 117.1,113.5 117.1,109.4 L117.1,11.5 C117.3,7.4 113.8,4 109.7,4 Z" fill="#8CAFBF"/>
  <path d="M39.7,12.9 C39.7,10.6 38.1,9.9 28.9,10.2 C21.2,10.5 17.4,11.4 15.1,14.2 C12.8,17 12.2,22.7 12.1,29.5 C12.1,34.3 12.1,38.8 14.6,38.8 C18,38.8 18,30.9 20.8,26.5 C26.2,17.8 39.7,15.9 39.7,12.9 Z" fill="#B4E1ED" opacity="0.5"/>
  <path d="M38.02,30.78 L32.62,34.71 L29.16,29.42 L39.69,21.83 L44.88,21.83 L44.88,57.66 L38.02,57.66 L38.02,30.78 Z" fill="#FAFAFA"/>
  <path d="M74.02,51.42 C81.28,44.23 85.63,39.84 87.06,38.27 C88.32,36.91 89.18,35.77 89.65,34.87 C90.12,33.96 90.36,32.93 90.36,31.78 C90.36,30.56 89.91,29.53 89,28.69 C88.09,27.85 86.89,27.43 85.39,27.43 C83.92,27.43 82.74,27.85 81.83,28.69 C80.92,29.53 80.28,30.58 79.89,31.83 L73.71,29.26 C74.09,27.9 74.8,26.58 75.83,25.31 C76.86,24.04 78.2,23 79.84,22.19 C81.48,21.39 83.37,20.99 85.5,20.99 C87.87,20.99 89.95,21.45 91.73,22.38 C93.51,23.31 94.89,24.56 95.87,26.15 C96.85,27.74 97.34,29.51 97.34,31.47 C97.34,35.35 95.45,39.14 91.68,42.84 C90.14,44.34 87.3,47.17 83.14,51.33 L83.3,51.64 L97.8,51.64 L97.8,57.66 L74.02,57.66 L74.02,51.42 Z" fill="#FAFAFA"/>
  <path d="M33.65,103.91 C31.33,102.3 29.73,99.96 28.86,96.89 L35.36,94.32 C35.78,96.03 36.53,97.35 37.61,98.28 C38.69,99.21 40.05,99.67 41.7,99.67 C43.2,99.67 44.5,99.22 45.6,98.31 C46.7,97.4 47.25,96.25 47.25,94.85 C47.25,93.35 46.67,92.15 45.5,91.26 C44.33,90.37 42.75,89.92 40.76,89.92 L37.67,89.92 L37.67,83.69 L40.5,83.69 C42.04,83.69 43.34,83.31 44.4,82.54 C45.46,81.77 46,80.65 46,79.19 C46,78 45.56,77.03 44.69,76.26 C43.82,75.49 42.7,75.11 41.34,75.11 C39.91,75.11 38.76,75.49 37.88,76.26 C37.01,77.03 36.4,77.99 36.05,79.14 L29.82,76.57 C30.55,74.47 31.91,72.66 33.88,71.12 C35.85,69.58 38.36,68.82 41.4,68.82 C43.63,68.82 45.63,69.24 47.4,70.08 C49.16,70.92 50.53,72.06 51.51,73.51 C52.49,74.96 52.98,76.59 52.98,78.41 C52.98,80.33 52.53,81.97 51.64,83.33 C50.75,84.69 49.68,85.69 48.42,86.32 L48.42,86.74 C50.17,87.44 51.58,88.54 52.66,90.04 C53.74,91.54 54.28,93.36 54.28,95.49 C54.28,97.55 53.76,99.4 52.71,101.04 C51.66,102.68 50.19,103.97 48.28,104.92 C46.38,105.86 44.19,106.33 41.71,106.33 C38.65,106.32 35.97,105.51 33.65,103.91 Z" fill="#FAFAFA"/>
  <path d="M90.21,98.88 L73.71,98.88 L73.71,93.33 L89.63,69.66 L97.07,69.66 L97.07,92.5 L101.52,92.5 L101.52,98.89 L97.07,98.89 L97.07,105.49 L90.21,105.49 L90.21,98.88 Z M90.21,92.49 L90.21,79.87 L89.79,79.87 L81.3,92.49 L90.21,92.49 Z" fill="#FAFAFA"/>
</svg>
